X:4
T:Ale Is Dear, The
M: 4/4
L: 1/8
R: Reel
K: Bmin
|:"Bm"f2(ef) B2(fe) |"A" f(aea) cA Ae |"Bm"(f2 ef) (B2 fe) |1 "A" fa ec "Bm"B2 Bz :|2 "A" fa ec "Bm"B2 Bc |
|:"Bm"B/B/B (Bc) d2 (cB) | "A"A/A/A (AB) AB cA |"Bm"BB/B/ (Bc) d2 (cB) | "A"f2 (ec) "Bm"B2 (Bc) |
B/B/B (Bc) d2 (cB) | "A"A/A/A (AB) AB cA |"Bm"BB/B/ (Bc) d2 (cB) | "A"f2 (ec) "Bm"B2 Bz |]
